src/renderer/assets/icon/browsingclose-default-icon.svg

<?xml version="1.0" encoding="UTF-8"?>
<svg width="30px" height="30px" viewBox="0 0 30 30" version="1.1" xmlns="http://www.w3.org/2000/svg" xmlns:xlink="http://www.w3.org/1999/xlink">
    <!-- Generator: Sketch 57.1 (83088) - https://sketch.com -->
    <desc>Created with Sketch.</desc>
    <g id="menuBar/__icon/--close" stroke="none" stroke-width="1" fill="none" fill-rule="evenodd">
        <path d="M10.4745166,9.34314575 L14.9998312,13.8678312 L19.5254834,9.34314575 C19.8095011,9.05912808 20.2539423,9.0333083 20.5671279,9.26568639 L20.6568542,9.34314575 C20.9692737,9.65556518 20.9692737,10.1620972 20.6568542,10.4745166 L20.6568542,10.4745166 L16.1308312,14.9998312 L20.6568542,19.5254834 C20.9692737,19.8379028 20.9692737,20.3444348 20.6568542,20.6568542 C20.3444348,20.9692737 19.8379028,20.9692737 19.5254834,20.6568542 L14.9998312,16.1308312 L10.4745166,20.6568542 C10.1904989,20.9408719 9.74605767,20.9666917 9.43287208,20.7343136 L9.34314575,20.6568542 C9.03072632,20.3444348 9.03072632,19.8379028 9.34314575,19.5254834 L9.34314575,19.5254834 L13.8678312,14.9998312 L9.34314575,10.4745166 C9.03072632,10.1620972 9.03072632,9.65556518 9.34314575,9.34314575 C9.65556518,9.03072632 10.1620972,9.03072632 10.4745166,9.34314575 Z" id="icon" fill="#7E808F" fill-rule="nonzero"></path>
    </g>
</svg>

<svg width="30" height="30" xmlns="http://www.w3.org/2000/svg">
    <path d="M10.475 9.343L15 13.868l4.525-4.525a.8.8 0 011.042-.077l.09.077a.8.8 0 010 1.132L16.13 15l4.526 4.525a.8.8 0 11-1.132 1.132L15 16.13l-4.525 4.526a.8.8 0 01-1.042.077l-.09-.077a.8.8 0 010-1.132L13.868 15l-4.525-4.525a.8.8 0 011.132-1.132z" fill="#7E808F"/>
</svg>
